Newaita-dark/actions/24/gnumeric-font.svg

<svg height="24" viewBox="0 0 24 24" width="24" xmlns="http://www.w3.org/2000/svg"><path d="m11.90625 3.164062c-3.847656 0-6.945312 3.097657-6.945312 6.945313v10.917969h1.984374v-5.957032h9.921876v5.957032h1.984374v-10.917969c0-3.847656-3.097656-6.945313-6.945312-6.945313zm0 1.984376c2.75 0 4.960938 2.214843 4.960938 4.960937v2.976563h-9.921876v-2.976563c0-2.746094 2.214844-4.960937 4.960938-4.960937zm0 0" fill="#e0e0e0"/></svg>

<?xml version="1.0" encoding="UTF-8"?>
<svg xmlns="http://www.w3.org/2000/svg" xmlns:xlink="http://www.w3.org/1999/xlink" width="24px" height="24px" viewBox="0 0 24 24" version="1.1">
<g id="surface1">
<path style=" stroke:none;fill-rule:nonzero;fill:rgb(87.843138%,87.843138%,87.843138%);fill-opacity:1;" d="M 11.90625 3.164062 C 8.058594 3.164062 4.960938 6.261719 4.960938 10.109375 L 4.960938 21.027344 L 6.945312 21.027344 L 6.945312 15.070312 L 16.867188 15.070312 L 16.867188 21.027344 L 18.851562 21.027344 L 18.851562 10.109375 C 18.851562 6.261719 15.753906 3.164062 11.90625 3.164062 Z M 11.90625 5.148438 C 14.65625 5.148438 16.867188 7.363281 16.867188 10.109375 L 16.867188 13.085938 L 6.945312 13.085938 L 6.945312 10.109375 C 6.945312 7.363281 9.160156 5.148438 11.90625 5.148438 Z M 11.90625 5.148438 "/>
</g>
</svg>
